X:1
T:Paulina, 11.11.11.11
T:Paulina, 11.11.11.11
T:Arranged from Gaetano Donizetti (1797-1848)
T:Public Domain Courtesy of the Cyber Hymnal™
C:Arranged from Gaetano Donizetti (1797-1848)
Z:Public Domain
Z:Courtesy of the Cyber Hymnal™
%%score ( 1 2 ) ( 3 4 )
L:1/8
M:4/4
K:Ab
V:1 treble 
V:2 treble 
V:3 bass 
V:4 bass 
V:1
 E2 | [Ec]4 [Ec]2 [Ec]2 | [F=B]4 [Ec]2 [Ec]2 | [FA]4 [_FA]2 [FB]2 | [Ec]6 E2 | [Ec]4 [=Ec]2 [Ec]2 | %6
 [Fc]4 [Fd]2 [Ac]2 | [EB]4 [Ec]2 [EB]2 | [EA]6 [CA]2 | [EB]4 [EB]2 [=Ec]2 | [FA]4 [FA]2 [FA]2 | %11
 [Fc]4 [Fc]2 [Fd]2 | [EB]6 E2 | [Ec]4 [=D=B]2 [Ec]2 | [_Ge]4 [Fd]2 [Ec]2 | [FB]4 [Ec]2 [EB]2 | %16
 [EA]6 |] %17
V:2
 E2 | x8 | x8 | x8 | x6 E2 | x8 | x8 | x8 | x8 | x8 | x8 | x8 | x6 E2 | x8 | x8 | x8 | x6 |] %17
V:3
 E,2 | [A,,A,]4 [A,,A,]2 [A,E]2 | [A,=D]4 [A,E]2 A,2 | [D,A,]4 [D,A,]2 [D,A,]2 | [A,,A,]6 [A,C]2 | %5
 [A,C]4 [G,B,]2 [G,B,]2 | [F,A,]4 [B,,B,]2 A,2 | [E,G,]4 [E,E]2 [E,D]2 | [A,,C]6 [A,,A,]2 | %9
 [E,G,]4 [E,G,]2 [C,G,]2 | F,4 [F,C]2 [F,C]2 | [F,A,]4 [F,A,]2 [B,,A,]2 | [E,G,]6 E,2 | %13
 [A,,A,]4 [A,,A,]2 (A,E) | [=A,,C]4 [B,,B,]2 [C,=A,]2 | [D,A,]4 [E,A,]2 [E,D]2 | [A,,C]6 |] %17
V:4
 E,2 | x8 | x6 A,2 | x8 | x8 | x8 | x6 (C,D,) | x8 | x8 | x8 | F,4 x4 | x8 | x6 E,2 | x6 A,,2 | %14
 x8 | x8 | x6 |] %17

